16x16/apps/libreoffice-chart.svg

<svg height="16" width="16" xmlns="http://www.w3.org/2000/svg"><path d="m14 15.143v-14.286c0-.475-.365-.857-.818-.857h-10.364c-.453 0-.818.382-.818.857v14.286c0 .475.365.857.818.857h10.364c.453 0 .818-.382.818-.857z" fill="#6b5733"/><path d="m3 1v14h10v-9l-4.5-5zm6.897 0 3.103 3.5v-3.5h-3z" fill="#f5f5f5"/><path d="m5 9h1v4h-1zm2-2h1v6h-1zm2 3h1v3h-1z" opacity=".5"/></svg>

<svg height="16" width="16" xmlns="http://www.w3.org/2000/svg">
    <path d="M14 15.143V.857C14 .382 13.635 0 13.182 0H2.818C2.365 0 2 .382 2 .857v14.286c0 .475.365.857.818.857h10.364c.453 0 .818-.382.818-.857z" fill="#6b5733"/>
    <path d="M3 1v14h10V6L8.5 1zm6.897 0L13 4.5V1h-3z" fill="#f5f5f5"/>
    <path d="M5 9h1v4H5zm2-2h1v6H7zm2 3h1v3H9z" opacity=".5"/>
</svg>
